X: 487
T: MIR AUS DEN AUGEN	 Op. 74
C: Fryderyk Chopin
%%abc-version 2.0
%%abcx-abcm2ps-target-version 5.9.1 (29 Sep 2008)
%%abc-creator hum2abc beta
%%abcx-conversion-date 2021/10/03 11:23:41
%%abc-edited-by Wojciech Jakubiak-Danek
%%abc-edited-by Antoni Szymański
%%abcx-initial-encoding-date 2020-02-07
%%humdrum-veritas 4148682738
%%humdrum-veritas-data 1105727919
%%linebreak <none>
%%barnumbers 0
L: 1/8
M: 3/4
N: Derived from 074-1-Sam-006.krn
P: 16 | Polnische Lieder | von Witwicki, Zaleski Mickiewicz etc. | für eine Singstimme | mit Begleitung des Pianoforte
Q: "Andantino espressivo." 1/4=72
V: 1 clef=treble
V: 2 clef=treble
V: 3 clef=bass
K: Ab
[V:1] z6 | 
[V:2] c2d3c & z2z2[=A2_G2] | 
[V:3] C2D3C & z2z2E,2 | 
[V:1] z6 | 
[V:2] B_AG2z2 & F4x2 | 
[V:3] B,A,G,2z2 & D,4x2 | 
[V:1] z6 | 
[V:2] BAG4 & =E6 | 
[V:3] B,A,G,4 & C,4=B,,2- | 
[V:1] z6 | 
[V:2] A4G2 & _EDC2B,2 | 
[V:3] F,4=E,2 & =B,,2C,4 | 
[V:1] F4C3/ C/ | 
[V:2] [F4C4A,4][F2C2A,2] | 
[V:3] [F,4C,4F,,4][F,2F,,2] | 
[V:1] D2C2z2 | 
[V:2] [F2D2B,2][F2C2A,2]z2 | 
[V:3] [F,2B,,2][F,2F,,2]z2 | 
[V:1] F4{/GF} =E F | 
[V:2] [FA,]F, [FB,]G, [F=B,]A, | 
[V:3] [D,6D,,6] | 
[V:1] A2G2z2 | 
[V:2] [FC]A, [=EC]G, [DB,][CG,] | 
[V:3] [C,4C,,4]z2 | 
[V:1] F4C3/ C/ | 
[V:2] [F4C4A,4F,4][F2C2A,2] | 
[V:3] [C,4F,,4][F,2F,,2] | 
[V:1] D2C2z F | 
[V:2] [F2D2A,2F,2][F4C4F,4] | 
[V:3] [D,2D,,2]!accent![A,,4-A,,,4] | 
[V:1] F2>F2 {/GF} =E F | 
[V:2] [F=B,]F, [FB,]G, [F=DB,]G, | 
[V:3] {/F,}A,,2G,,4 | 
[V:1] A2G2z2 | 
[V:2] [=EC]G, [EC]G, [_ED]G, | 
[V:3] C,4B,,2 | 
[V:1] A4E3/ E/ | 
[V:2] [E4C4A,4E,4]x2 | 
[V:3] [A,4E,4][C2A,2E,2] & [A,,4A,,,4][A,,2A,,,2] | 
[V:1] !accent!_F2E2z E | 
[V:2] x4[EDB,]E, | 
[V:3] [D2__B,2_F,2][D2_B,2E,2]x2 & [G,,2G,,,2][G,,4G,,,4] | 
[V:1] EA=GA B3/ A/ | 
[V:2] [AEC]_G, [AEC]G, [AEC]G, | 
[V:3] [A,,6A,,,6] | 
[V:1] A4B2 | 
[V:2] [AD]F, [FD]A, FG, | 
[V:3] [D,6D,,6] | 
[V:1] c4G3/ G/ | 
[V:2] [=EB,]G, [EB,]G, [EB,]G, | 
[V:3] [C,6C,,6] | 
[V:1] !accent!A4F2 | 
[V:2] [FCA,]F, [FCA,]F, [FCA,]F, | 
[V:3] F,,4A,,B,, | 
[V:1] =E> Gd3c | 
[V:2] [=EB,]G, [EB,]G, [EB,]G, | 
[V:3] [C,6C,,6]- | 
[V:1] B2A2z2 | 
[V:2] [FCA,]F, [FCA,]F, [FCA,]F, | 
[V:3] [C,6C,,6] | 
[V:1] c4G3/ G/ | 
[V:2] [=ECG,]=E, [ECG,]E, [ECG,]E, | 
[V:3] [C,6C,,6] | 
[V:1] A4F2 | 
[V:2] [=D=B,]F, [DB,]F, [_D_B,]F, | 
[V:3] [C,6C,,6] | 
[V:1] !turn!C> CA3G | 
[V:2] [CA,]F, [DB,G,]F, [CB,G,]=E, | 
[V:3] [C,6C,,6] | 
[V:1] G2F2z2 | 
[V:2] [A,F,]CFAc2- | 
[V:3] [C,2F,,2]z2z2 | 
[V:1] z6 | 
[V:2] cfa=bc'2 | 
[V:3] [A2C2F,2]z2z2 | 
[V:1] z6 | 
[V:2] afcag2 | 
[V:3] z2z2[K:clef=treble][B2=E2C2] | 
[V:1] z6 | 
[V:2] cfa=bc'2 | 
[V:3] [A2F2]z2z2 | 
[V:1] z6 | 
[V:2] afcag2 | 
[V:3] z2z2[B2=E2C2] | 
[V:1] z6 | 
[V:2] cfa=bc'2 | 
[V:3] [A2F2]z2z2 | 
[V:1] z6 | 
[V:2] afcAF2 | 
[V:3] z6[K:clef=bass] | 
[V:1] z6 | 
[V:2] [C6A,6F,6] | 
[V:3] [F,,6F,,,6] | 
[V:1] z6 ||  
[V:2] [E6B,6E,6] ||  
[V:3] [G,,6G,,,6] ||  
[V:1] [M:2/4]E2A G | 
[V:2] [M:2/4][ECA,]E, [EC]A, | 
[V:3] [M:2/4]A,,4 | 
[V:1] !turn!F2G A | 
[V:2] [FD]A, [FD]A, | 
[V:3] [D,4D,,4] | 
[V:1] E>F E F & x2EF | 
[V:2] [EDB,]E, [EDB,]E, | 
[V:3] G,,4 | 
[V:1] E>D C z | 
[V:2] [ECA,]E, [ECA,]E, | 
[V:3] A,,4 | 
[V:1] E2F3/ F/ | 
[V:2] [ECA,]E, [=DB,]F, | 
[V:3] A,,4 | 
[V:1] G2G A | 
[V:2] [G=D=B,]G, [GEC]G, | 
[V:3] G,,2C,2 | 
[V:1] cB !accent!F3/ G/ | 
[V:2] [G2E2][F2=D2] | 
[V:3] {/B,,,} G,B, A,B, & B,,4 | 
[V:1] F2E z | 
[V:2] E2z2 | 
[V:3] G,B,G,B, & [E,4E,,4] | 
[V:1] B2c3/ B/ | 
[V:2] [GE]B, [GE]B, | 
[V:3] [E,4E,,4] | 
[V:1] F2B B | 
[V:2] [AF=D]B, [AFD]B, | 
[V:3] [E,4E,,4] | 
[V:1] =A>B c3/ B/ & =A> Bx2 | 
[V:2] [GE_D]B, [GE]B, | 
[V:3] [E,2E,,2][D,2D,,2] | 
[V:1] E2{/GF}E2 | 
[V:2] [AE]A, [EDG,]E, | 
[V:3] [C,2C,,2][B,,2B,,,2] | 
[V:1] E2A3/ B/ | 
[V:2] [ECA,]EeE | 
[V:3] E,4 & A,,2E,,2 | 
[V:1] c2d3/ c/ & x2d3/c/ | 
[V:2] [ECA,]EeE | 
[V:3] E,4 & A,,2E,,2 | 
[V:1] cB GF & c B G F | 
[V:2] [EDG,]EeE | 
[V:3] E,4 & B,,2E,,2 | 
[V:1] F3E | 
[V:2] [EDG,]EeE | 
[V:3] E,4 & B,,2E,,2 | 
[V:1] E2A3/ B/ | 
[V:2] [ECA,]EeE | 
[V:3] [E,2A,,2]z2 | 
[V:1] c2c B & x2cB | 
[V:2] zc2_e & x =EFG | 
[V:3] z [CG,C,][CA,F,][EB,E,] | 
[V:1] E2F G & E !turn!E F G | 
[V:2] [cA] [EC][=D=B,][_D_B,] | 
[V:3] [EA,] z[E,2E,,2] | 
[V:1] B Az2 | 
[V:2] [ACA,] acf | 
[V:3] [E,A,,] zz2 | 
[V:1] z4 | 
[V:2] [=dA][eG][c_G][_dF] | 
[V:3] FEA,D | 
[V:1] z4 | 
[V:2] [=BF][c=E][A_E][B=D] | 
[V:3] =DCF,B, | 
[V:1] z4 |[1 
[V:2] GA2[GD] & _DCB,2 | 
[V:3] =E,F,D,_E, | 
[V:1] z4 |[2 
[V:2] [AC]E,[ECA,]E, | 
[V:3] [A,,2A,,,2]z2 |]  
[V:1] z4 |]  
[V:2] [A4C4] |]  
[V:3] [E,4A,,4] |]
